X:16
T:Little Maggie in the Woods
M:2/4
L:1/8
R:polka
K:Gmaj
|: GD G>A | Be e f/e/ | dB B/A/G/A/ | BA A B/A/ |
GD G>A | Be e f/e/ | dB A B/A/ |1 G2 G B/A/ :|2 G2 G2 ||
|: g>f ed | Be e f/e/ | dB B/A/G/A/ | BA A2 |
g>f ed | Be e f/e/ | dB A B/A/ | G2 G2 :|
